X:366
T:Tzadik Katamar
Z:Jack Campin, http://www.campin.me.uk/
F:Jack Campin's Nine-Note Tunebook
% last edit 03-02-2013
Z:John Chambers <jc:trillian.mit.edu>
M:4/4
L:1/8
Q:1/2=84
K:FMin
"C7"C2|"Fm" F2 F2  A2  F2|"C7"=E2 EF G2 C2|   "Fm"F2 F2 A2 F2|[1 "C7"c6        :|\
                                                              [2 "F7"c6        ||
    z2|"Bbm"d2 d2  d2  c2|"Eb" B2 AB G2 AB|   "Ab"c2 c2 c2 B2|   "Db"A2 G2 F2 A2|
       "C7" G2 F2 =E2 =D2|    =E2 C2 E2 G2|[1 "Fm"c8-        |   "F7"c6        :|\
                                           [2 "Fm"F2 z2 C2 z2|       F2 z2 z2  |]

